svg/free/image-plus.svg

<svg version="1.1" xmlns="http://www.w3.org/2000/svg" width="24" height="24" viewBox="0 0 24 24">
<title>image-plus</title>
<path d="M20.625 9.829l-3.036-3.036-3.245 3.245-4.688-4.688-6.281 6.281v-8.257h12.375v-1.5h-13.875v20.25h20.25v-13.5h-1.5zM17.589 8.914l3.036 3.036v4.369l-5.221-5.221zM3.375 20.625v-6.872l6.281-6.281 10.969 10.969v2.185z"></path>
<path d="M21 3v-2.25h-1.5v2.25h-2.25v1.5h2.25v2.25h1.5v-2.25h2.25v-1.5h-2.25z"></path>
</svg>

<svg xmlns="http://www.w3.org/2000/svg" width="24" height="24" viewBox="0 0 24 24"><path d="M20.625 9.829l-3.036-3.036-3.245 3.245L9.656 5.35l-6.281 6.281V3.374H15.75v-1.5H1.875v20.25h20.25v-13.5h-1.5zm-3.036-.915l3.036 3.036v4.369l-5.221-5.221zM3.375 20.625v-6.872l6.281-6.281 10.969 10.969v2.185z"/><path d="M21 3V.75h-1.5V3h-2.25v1.5h2.25v2.25H21V4.5h2.25V3H21z"/></svg>
